wp-content/themes/KOOEN/assets/img/common/package.svg

<svg fill="none" height="20" viewBox="0 0 82 20" width="82" xmlns="http://www.w3.org/2000/svg"><path d="m10.125 6.275c0 .85-.125 1.6-.375 2.25s-.59167 1.19167-1.025 1.625c-.41667.4167-.9.7333-1.45.95-.53333.2167-1.1.325-1.7.325h-2.4v7.575h-2.225v-17.7h4.475c.53333 0 1.075.08333 1.625.25.56667.15 1.075.41667 1.525.8s.81667.9 1.1 1.55c.3.63333.45 1.425.45 2.375zm-2.225.025c0-1.06667-.25-1.84167-.75-2.325-.5-.5-1.15-.75-1.95-.75h-2.025v6.325h2.025c.8 0 1.45-.26667 1.95-.8.5-.55.75-1.36667.75-2.45zm11.5404 12.7-1-4.15h-5.125l-1.025 4.15h-2.275l4.45-17.7h2.975l4.35 17.7zm-3.475-15.6h-.1l-2.25 9.675h4.525zm17.6112 13.7c-.45.7-1.025 1.2667-1.725 1.7-.7.4167-1.55.625-2.55.625-.9834 0-1.8667-.2333-2.65-.7-.7834-.4667-1.4417-1.1167-1.975-1.95-.5334-.8333-.9417-1.8083-1.225-2.925-.2834-1.1333-.425-2.3667-.425-3.7 0-1.33333.1416-2.56667.425-3.7.3-1.13333.7166-2.10833 1.25-2.925.55-.83333 1.2083-1.48333 1.975-1.95.7833-.46667 1.6583-.700001 2.625-.700001.9 0 1.725.175001 2.475.525001s1.3666.88333 1.85 1.6l-1.4 1.525c-.3667-.53333-.7917-.925-1.275-1.175-.4834-.26667-1-.4-1.55-.4-.6834 0-1.275.19167-1.775.575s-.9167.9-1.25 1.55c-.3167.65-.5584 1.41667-.725 2.3-.1667.86667-.25 1.79167-.25 2.775 0 .9833.0833 1.9083.25 2.775.1666.8667.4166 1.6333.75 2.3.3333.65.75 1.1667 1.25 1.55.5166.3833 1.1166.575 1.8.575.6166 0 1.1583-.1667 1.625-.5.4833-.3333.8666-.7417 1.15-1.225zm10.0332 1.9-5.4-8.875h-.05v8.875h-2.2v-17.7h2.2v7.875h.05l5.1-7.875h2.6l-5.65 8.2 6.025 9.5zm12.2076 0-1-4.15h-5.125l-1.025 4.15h-2.275l4.45-17.7h2.975l4.35 17.7zm-3.475-15.6h-.1l-2.25 9.675h4.525zm13.3111-2.525001c.95 0 1.7917.175001 2.525.525001s1.3417.88333 1.825 1.6l-1.4 1.525c-.3667-.53333-.7917-.93333-1.275-1.2s-1.0083-.4-1.575-.4c-.6833 0-1.275.19167-1.775.575-.4833.38333-.8917.90833-1.225 1.575-.3333.65-.5833 1.41667-.75 2.3-.15.86667-.225 1.78333-.225 2.75 0 1.0167.0833 1.9667.25 2.85.1833.8667.4417 1.625.775 2.275.35.6333.7833 1.1333 1.3 1.5s1.125.55 1.825.55c.9333 0 1.6417-.2 2.125-.6v-5.475h-2.325v-1.95h4.5v8.625c-.5167.4333-1.125.7833-1.825 1.05-.6833.25-1.525.375-2.525.375-1.0167 0-1.925-.2167-2.725-.65-.8-.45-1.4833-1.075-2.05-1.875-.55-.8-.975-1.7667-1.275-2.9-.2833-1.1333-.425-2.3917-.425-3.775 0-1.33333.1417-2.55833.425-3.675.2833-1.13333.6917-2.10833 1.225-2.925.5333-.83333 1.1833-1.48333 1.95-1.95.7833-.46667 1.6667-.700001 2.65-.700001zm8.0504 18.125001v-17.7h7.45v2h-5.275v5.575h4.925v1.875h-4.925v6.225h5.525v2.025z" fill="#fff"/></svg>

<svg width="82" height="20" viewBox="0 0 82 20" fill="none" xmlns="http://www.w3.org/2000/svg">
<path d="M10.125 6.275C10.125 7.125 10 7.875 9.75 8.525C9.5 9.175 9.15833 9.71667 8.725 10.15C8.30833 10.5667 7.825 10.8833 7.275 11.1C6.74167 11.3167 6.175 11.425 5.575 11.425H3.175V19H0.95V1.3H5.425C5.95833 1.3 6.5 1.38333 7.05 1.55C7.61667 1.7 8.125 1.96667 8.575 2.35C9.025 2.73333 9.39167 3.25 9.675 3.9C9.975 4.53333 10.125 5.325 10.125 6.275ZM7.9 6.3C7.9 5.23333 7.65 4.45833 7.15 3.975C6.65 3.475 6 3.225 5.2 3.225H3.175V9.55H5.2C6 9.55 6.65 9.28333 7.15 8.75C7.65 8.2 7.9 7.38333 7.9 6.3ZM19.4404 19L18.4404 14.85H13.3154L12.2904 19H10.0154L14.4654 1.3H17.4404L21.7904 19H19.4404ZM15.9654 3.4H15.8654L13.6154 13.075H18.1404L15.9654 3.4ZM33.5766 17.1C33.1266 17.8 32.5516 18.3667 31.8516 18.8C31.1516 19.2167 30.3016 19.425 29.3016 19.425C28.3182 19.425 27.4349 19.1917 26.6516 18.725C25.8682 18.2583 25.2099 17.6083 24.6766 16.775C24.1432 15.9417 23.7349 14.9667 23.4516 13.85C23.1682 12.7167 23.0266 11.4833 23.0266 10.15C23.0266 8.81667 23.1682 7.58333 23.4516 6.45C23.7516 5.31667 24.1682 4.34167 24.7016 3.525C25.2516 2.69167 25.9099 2.04167 26.6766 1.575C27.4599 1.10833 28.3349 0.874999 29.3016 0.874999C30.2016 0.874999 31.0266 1.05 31.7766 1.4C32.5266 1.75 33.1432 2.28333 33.6266 3L32.2266 4.525C31.8599 3.99167 31.4349 3.6 30.9516 3.35C30.4682 3.08333 29.9516 2.95 29.4016 2.95C28.7182 2.95 28.1266 3.14167 27.6266 3.525C27.1266 3.90833 26.7099 4.425 26.3766 5.075C26.0599 5.725 25.8182 6.49167 25.6516 7.375C25.4849 8.24167 25.4016 9.16667 25.4016 10.15C25.4016 11.1333 25.4849 12.0583 25.6516 12.925C25.8182 13.7917 26.0682 14.5583 26.4016 15.225C26.7349 15.875 27.1516 16.3917 27.6516 16.775C28.1682 17.1583 28.7682 17.35 29.4516 17.35C30.0682 17.35 30.6099 17.1833 31.0766 16.85C31.5599 16.5167 31.9432 16.1083 32.2266 15.625L33.5766 17.1ZM43.6098 19L38.2098 10.125H38.1598V19H35.9598V1.3H38.1598V9.175H38.2098L43.3098 1.3H45.9098L40.2598 9.5L46.2848 19H43.6098ZM55.8174 19L54.8174 14.85H49.6924L48.6674 19H46.3924L50.8424 1.3H53.8174L58.1674 19H55.8174ZM52.3424 3.4H52.2424L49.9924 13.075H54.5174L52.3424 3.4ZM65.6535 0.874999C66.6035 0.874999 67.4452 1.05 68.1785 1.4C68.9118 1.75 69.5202 2.28333 70.0035 3L68.6035 4.525C68.2368 3.99167 67.8118 3.59167 67.3285 3.325C66.8452 3.05833 66.3202 2.925 65.7535 2.925C65.0702 2.925 64.4785 3.11667 63.9785 3.5C63.4952 3.88333 63.0868 4.40833 62.7535 5.075C62.4202 5.725 62.1702 6.49167 62.0035 7.375C61.8535 8.24167 61.7785 9.15833 61.7785 10.125C61.7785 11.1417 61.8618 12.0917 62.0285 12.975C62.2118 13.8417 62.4702 14.6 62.8035 15.25C63.1535 15.8833 63.5868 16.3833 64.1035 16.75C64.6202 17.1167 65.2285 17.3 65.9285 17.3C66.8618 17.3 67.5702 17.1 68.0535 16.7V11.225H65.7285V9.275H70.2285V17.9C69.7118 18.3333 69.1035 18.6833 68.4035 18.95C67.7202 19.2 66.8785 19.325 65.8785 19.325C64.8618 19.325 63.9535 19.1083 63.1535 18.675C62.3535 18.225 61.6702 17.6 61.1035 16.8C60.5535 16 60.1285 15.0333 59.8285 13.9C59.5452 12.7667 59.4035 11.5083 59.4035 10.125C59.4035 8.79167 59.5452 7.56667 59.8285 6.45C60.1118 5.31667 60.5202 4.34167 61.0535 3.525C61.5868 2.69167 62.2368 2.04167 63.0035 1.575C63.7868 1.10833 64.6702 0.874999 65.6535 0.874999ZM73.7039 19V1.3H81.1539V3.3H75.8789V8.875H80.8039V10.75H75.8789V16.975H81.4039V19H73.7039Z" fill="white"/>
</svg>
